U-commodities/img/icons/brain.svg

<svg width="50" height="50" viewBox="0 0 50 50" fill="none" xmlns="http://www.w3.org/2000/svg">
<path d="M19.5678 44.5C17.5717 44.5 15.695 43.4598 14.6074 41.7692C11.0171 41.6212 8.21578 38.7233 8.21578 35.1845C8.21578 33.9638 8.55797 32.7796 9.21112 31.7299C6.90949 30.2783 5.5 27.7444 5.5 25C5.5 22.2556 6.90949 19.723 9.21112 18.2687C8.55933 17.2204 8.21578 16.0376 8.21578 14.8155C8.21578 11.2441 11.0687 8.32587 14.6142 8.21859C15.7046 6.53475 17.5771 5.5 19.5678 5.5C22.8321 5.5 25.4882 8.15613 25.4882 11.4206V17.7214H37.2203C38.4479 17.7214 39.4473 16.722 39.4473 15.4944V13.2022C38.6665 12.9877 38.0894 12.2707 38.0894 11.4206C38.0894 10.4022 38.9177 9.57382 39.9361 9.57382C40.9545 9.57382 41.7829 10.4022 41.7829 11.4206C41.7829 12.2693 41.2058 12.9863 40.425 13.2022V15.4944C40.425 17.2611 38.987 18.6992 37.2203 18.6992H25.4882V21.7953H40.8717C41.0863 21.0131 41.8046 20.4373 42.6533 20.4373C43.6717 20.4373 44.5 21.2657 44.5 22.2841C44.5 23.3026 43.6717 24.1309 42.6533 24.1309C41.8046 24.1309 41.0876 23.5552 40.8717 22.773H25.4882V27.227H40.8717C41.0863 26.4462 41.8046 25.8691 42.6533 25.8691C43.6717 25.8691 44.5 26.6974 44.5 27.7159C44.5 28.7343 43.6717 29.5627 42.6533 29.5627C41.8046 29.5627 41.0876 28.9855 40.8717 28.2047H25.4882V31.2995H37.2203C38.9883 31.2995 40.425 32.7375 40.425 34.5042V36.7964C41.2058 37.011 41.7829 37.7293 41.7829 38.578C41.7829 39.5965 40.9545 40.4248 39.9361 40.4248C38.9177 40.4248 38.0894 39.5965 38.0894 38.578C38.0894 37.7293 38.6665 37.0123 39.4473 36.7964V34.5056C39.4473 33.278 38.4492 32.2786 37.2203 32.2786H25.4882V38.5794C25.4882 41.8439 22.8321 44.5 19.5678 44.5ZM15.1152 40.7901L15.3094 41.0427C16.2083 42.5948 17.8011 43.5223 19.5678 43.5223C22.293 43.5223 24.5105 41.3048 24.5105 38.5794V11.4206C24.5105 8.69523 22.293 6.47772 19.5678 6.47772C17.8011 6.47772 16.2083 7.40519 15.3081 8.95731L15.1505 9.20038C14.8056 9.88478 14.625 10.6479 14.625 11.4206C14.625 12.2897 14.8532 13.1438 15.2863 13.8921L14.4404 14.3809C13.9216 13.486 13.6473 12.4608 13.6473 11.4206C13.6473 10.6778 13.7872 9.94318 14.0547 9.25742C11.286 9.64714 9.19346 11.9909 9.19346 14.8155C9.19346 16.005 9.57775 17.1538 10.3029 18.137L10.6369 18.5892L10.1426 18.8567C7.88174 20.0802 6.47768 22.4335 6.47768 25C6.47768 27.4239 7.72966 29.6577 9.77328 30.9274C11.0307 29.4377 12.8611 28.585 14.8151 28.585V29.564C13.1775 29.564 11.6431 30.2661 10.5717 31.4977L10.3029 31.8644C9.57775 32.8462 9.19346 33.995 9.19346 35.1845C9.19346 38.2847 11.7151 40.8064 14.8151 40.8064L15.1152 40.7901ZM39.9361 37.7103C39.4568 37.7103 39.0671 38.1 39.0671 38.5794C39.0671 39.0587 39.4568 39.4485 39.9361 39.4485C40.4155 39.4485 40.8052 39.0587 40.8052 38.5794C40.8052 38.1 40.4155 37.7103 39.9361 37.7103ZM42.6519 26.8468C42.1726 26.8468 41.7829 27.2365 41.7829 27.7159C41.7829 28.1952 42.1726 28.585 42.6519 28.585C43.1312 28.585 43.521 28.1952 43.521 27.7159C43.521 27.2365 43.1312 26.8468 42.6519 26.8468ZM42.6519 21.415C42.1726 21.415 41.7829 21.8048 41.7829 22.2841C41.7829 22.7635 42.1726 23.1532 42.6519 23.1532C43.1312 23.1532 43.521 22.7635 43.521 22.2841C43.521 21.8048 43.1312 21.415 42.6519 21.415ZM39.9361 10.5515C39.4568 10.5515 39.0671 10.9413 39.0671 11.4206C39.0671 11.9 39.4568 12.2897 39.9361 12.2897C40.4155 12.2897 40.8052 11.9 40.8052 11.4206C40.8052 10.9413 40.4155 10.5515 39.9361 10.5515ZM19.5678 41.7841V40.8064C20.7953 40.8064 21.7947 39.8083 21.7947 38.5794H22.7724C22.7724 40.3474 21.3344 41.7841 19.5678 41.7841ZM15.4941 39.0682C13.3527 39.0682 11.6105 37.326 11.6105 35.1845H12.5882C12.5882 36.7869 13.8918 38.0905 15.4941 38.0905V39.0682ZM19.5678 36.3524C17.8011 36.3524 16.3631 34.9143 16.3631 33.1476C16.3631 31.381 17.8011 29.9429 19.5678 29.9429V30.922C18.3402 30.922 17.3408 31.9201 17.3408 33.149C17.3408 34.3779 18.3402 35.376 19.5678 35.376V36.3524ZM11.8712 25.9057C11.2656 25.3001 10.9316 24.4962 10.9316 23.6421C10.9316 21.7545 12.2487 20.4373 14.1362 20.4373C15.0066 20.4373 15.7901 20.7605 16.4025 21.3729L15.71 22.0641C15.2863 21.6391 14.7418 21.415 14.1362 21.415C12.7837 21.415 11.9092 22.2896 11.9092 23.6421C11.9092 24.2355 12.1414 24.7936 12.561 25.2146L11.8712 25.9057ZM19.5678 20.7361V19.7584C20.7953 19.7584 21.7947 18.7589 21.7947 17.5313C21.7947 16.3038 20.7953 15.3043 19.5678 15.3043V14.3266C21.3344 14.3266 22.7724 15.7647 22.7724 17.5313C22.7724 19.298 21.3344 20.7361 19.5678 20.7361ZM22.7724 11.4206H21.7947C21.7947 10.193 20.7953 9.19359 19.5678 9.19359C18.3402 9.19359 17.3408 10.193 17.3408 11.4206H16.3631C16.3631 9.65393 17.8011 8.21588 19.5678 8.21588C21.3344 8.21588 22.7724 9.65393 22.7724 11.4206Z" fill="#353535"/>
</svg>

<svg width="50" height="50" fill="none" xmlns="http://www.w3.org/2000/svg"><path d="M19.568 44.5c-1.996 0-3.873-1.04-4.96-2.73-3.59-.149-6.392-3.047-6.392-6.586 0-1.22.342-2.404.995-3.454a7.959 7.959 0 010-13.461 6.51 6.51 0 01-.995-3.453 6.608 6.608 0 016.398-6.597c1.09-1.684 2.963-2.719 4.954-2.719a5.927 5.927 0 015.92 5.92v6.301H37.22a2.23 2.23 0 002.227-2.227v-2.292a1.85 1.85 0 01-1.358-1.781c0-1.019.829-1.847 1.847-1.847 1.019 0 1.847.828 1.847 1.847 0 .848-.577 1.565-1.358 1.781v2.292A3.209 3.209 0 0137.22 18.7H25.488v3.096h15.384a1.85 1.85 0 011.781-1.358c1.019 0 1.847.829 1.847 1.847a1.849 1.849 0 01-1.847 1.847 1.852 1.852 0 01-1.781-1.358H25.488v4.454h15.384a1.852 1.852 0 011.781-1.358c1.019 0 1.847.828 1.847 1.847a1.849 1.849 0 01-1.847 1.847 1.853 1.853 0 01-1.781-1.358H25.488V31.3H37.22a3.208 3.208 0 013.205 3.204v2.292c.78.215 1.358.933 1.358 1.782a1.849 1.849 0 01-1.847 1.847 1.849 1.849 0 01-1.847-1.847c0-.849.578-1.566 1.358-1.782v-2.29a2.23 2.23 0 00-2.227-2.227H25.488v6.3a5.927 5.927 0 01-5.92 5.921zm-4.453-3.71l.194.253c.9 1.552 2.492 2.48 4.259 2.48a4.949 4.949 0 004.942-4.944V11.421a4.949 4.949 0 00-4.942-4.943c-1.767 0-3.36.927-4.26 2.48l-.158.242a4.941 4.941 0 00.136 4.692l-.846.489a5.912 5.912 0 01-.793-2.96c0-.743.14-1.478.408-2.164-2.769.39-4.862 2.734-4.862 5.559a5.57 5.57 0 001.11 3.321l.334.452-.494.268a6.98 6.98 0 00-.37 12.07 6.573 6.573 0 015.042-2.342v.979a5.602 5.602 0 00-4.243 1.934l-.27.366a5.561 5.561 0 00-1.109 3.32c0 3.1 2.522 5.622 5.622 5.622l.3-.016zm24.821-3.08a.87.87 0 10.002 1.74.87.87 0 00-.002-1.74zm2.716-10.863a.87.87 0 10.002 1.74.87.87 0 00-.002-1.74zm0-5.432a.87.87 0 10.002 1.74.87.87 0 00-.002-1.74zm-2.716-10.863a.87.87 0 10.002 1.74.87.87 0 00-.002-1.74zM19.568 41.784v-.978a2.23 2.23 0 002.227-2.227h.977a3.208 3.208 0 01-3.204 3.205zm-4.074-2.716a3.888 3.888 0 01-3.883-3.883h.977a2.91 2.91 0 002.906 2.905v.978zm4.074-2.716a3.209 3.209 0 01-3.205-3.204 3.209 3.209 0 013.205-3.205v.979a2.23 2.23 0 00-2.227 2.227c0 1.229 1 2.227 2.227 2.227v.976zM11.87 25.906a3.181 3.181 0 01-.94-2.264c0-1.887 1.318-3.205 3.205-3.205.87 0 1.654.323 2.267.936l-.693.691a2.177 2.177 0 00-1.574-.649c-1.352 0-2.227.875-2.227 2.227 0 .593.232 1.152.652 1.573l-.69.69zm7.697-5.17v-.978c1.227 0 2.227-1 2.227-2.227 0-1.227-1-2.227-2.227-2.227v-.977a3.209 3.209 0 013.204 3.204 3.209 3.209 0 01-3.204 3.205zm3.204-9.315h-.977c0-1.228-1-2.227-2.227-2.227a2.23 2.23 0 00-2.227 2.227h-.978a3.209 3.209 0 013.205-3.205 3.209 3.209 0 013.204 3.205z" fill="#353535"/></svg>
